public/apps/atelier-des-idees/src/img/icn_hourglass_green.svg

<svg xmlns="http://www.w3.org/2000/svg" width="20" height="20" viewBox="0 0 20 20"><path fill="#1dd16e" d="M9.02031369,10.0005333 L10.9796863,10.0005333 L15.8666667,5.11230553 L15.8666667,4.13333333 L4.13333333,4.13333333 L4.13333333,5.11230553 L9.02093734,9.99990954 Z M6.00412933,10.0000905 L2,5.99596113 L2,2 L18,2 L18,5.99596113 L13.9958707,10.0000905 L18,14.0051805 L18,18 L2,18 L2,14.0051805 L6.00412933,10.0000905 Z"/></svg>

<svg viewBox="0 0 20 20"><path fill="#1dd16e" d="M9.02 10h1.96l4.887-4.888v-.979H4.133v.98L9.021 10zm-3.016 0L2 5.996V2h16v3.996L13.996 10 18 14.005V18H2v-3.995L6.004 10z"/></svg>
